humanity-icon-theme/Humanity/places/22/start-here.svg

<?xml version="1.0" encoding="UTF-8" standalone="no"?>
<!-- Created with Inkscape (http://www.inkscape.org/) -->

<svg
   xmlns:svg="http://www.w3.org/2000/svg"
   xmlns="http://www.w3.org/2000/svg"
   version="1.1"
   width="22"
   height="22"
   id="svg2864">
  <defs
     id="defs2866" />
  <g
     transform="translate(-4.6208681e-4,6)"
     id="layer1">
    <path
       d="M 10.790662,0.75687021 9.4954621,-1.818 c 1.4844929,-0.7021716 2.5296729,-0.5444189 4.1329919,-0.17311 0.03898,0.8078704 0.474909,1.57733275 1.2298,2.00905139 0.755668,0.4319227 1.647374,0.4209764 2.374284,0.049793 C 18.27391,1.1789369 18.870037,2.6907845 19.155339,4.168 l -2.973349,0 C 15.350902,1.6393818 13.233321,0.06698869 10.790662,0.75687021 z"
       id="path19"
       style="fill:#606060;fill-opacity:1;overflow:visible" />
    <path
       d="m 18,-2.5070429 a 1.5,1.5 0 0 1 -3,0 1.5,1.5 0 1 1 3,0 z"
       id="path2915"
       style="fill:#606060;fill-opacity:1;stroke:none" />
    <path
       d="m 18,12.5 a 1.5,1.5 0 0 1 -3,0 1.5,1.5 0 1 1 3,0 z"
       id="path2917"
       style="fill:#606060;fill-opacity:1;stroke:none" />
    <path
       d="m 16.174903,5.875 2.972831,0 c -0.23634,1.5239686 -1.031631,2.8801259 -1.960444,4.0747305 -0.723891,-0.365811 -1.616255,-0.36972 -2.376514,0.069033 -0.760095,0.438656 -1.20334,1.213353 -1.248617,2.023052 C 11.991548,12.46413 11.168716,12.401487 9.7464621,11.937 L 10.933506,9.1623813 C 13.606025,9.9048013 15.49529,8.3471079 16.174903,5.875 z"
       id="path23"
       style="fill:#606060;fill-opacity:1;overflow:visible" />
    <path
       d="M 9.414,8.2116052 8.1944621,11.161 C 7.0986094,10.646172 5.8351336,9.030076 5.2554621,7.9067884 5.9099288,7.4277176 6.6239123,6.6676933 6.592,5.4806811 6.5580142,4.216541 6.0883831,3.4482373 5.155,2.9629996 5.4913813,1.3717686 6.7314158,-0.3126293 7.9964621,-1.19 L 9.414,1.7029292 c -2.3391059,2.3544815 -1.7116138,5.1938984 0,6.508676 z"
       id="path3597"
       style="fill:#606060;fill-opacity:1;overflow:visible" />
    <path
       d="M 2.8333812,6.8093802 A 1.5000001,1.5000001 0 0 1 4.1947222,4.1360394 1.5000001,1.5000001 0 1 1 2.8333812,6.8093802 z"
       id="path3599"
       style="fill:#606060;fill-opacity:1;stroke:none" />
  </g>
</svg>

<?xml version="1.0" encoding="UTF-8" standalone="no"?>
<!-- Created with Inkscape (http://www.inkscape.org/) -->
<svg id="svg2864" xmlns="http://www.w3.org/2000/svg" height="22" width="22" version="1.1">
 <g id="layer1" transform="translate(-.00046209 6)">
  <path id="path19" style="fill:#606060" d="m10.791 0.75687-1.2955-2.5749c1.4845-0.70217 2.5297-0.54442 4.133-0.17311 0.03898 0.80787 0.47491 1.5773 1.2298 2.0091 0.75567 0.43192 1.6474 0.42098 2.3743 0.049793 1.041 1.1111 1.637 2.623 1.922 4.1002h-2.9733c-0.831-2.5286-2.949-4.101-5.391-3.4111z"/>
  <path id="path2915" style="fill:#606060" d="m18-2.507a1.5 1.5 0 0 1 -3 0 1.5 1.5 0 1 1 3 0z"/>
  <path id="path2917" style="fill:#606060" d="m18 12.5a1.5 1.5 0 0 1 -3 0 1.5 1.5 0 1 1 3 0z"/>
  <path id="path23" style="fill:#606060" d="m16.175 5.875h2.9728c-0.23634 1.524-1.0316 2.8801-1.9604 4.0747-0.72389-0.36581-1.6163-0.36972-2.3765 0.069033-0.7601 0.43866-1.2033 1.2134-1.2486 2.0231-1.57 0.422-2.393 0.359-3.8155-0.105l1.1875-2.7746c2.672 0.7424 4.561-0.8153 5.241-3.2874z"/>
  <path id="path3597" style="fill:#606060" d="m9.414 8.2116-1.2195 2.9494c-1.0959-0.515-2.3594-2.1309-2.939-3.2542 0.6544-0.4791 1.3684-1.2391 1.3365-2.4261-0.034-1.2642-0.5036-2.0325-1.437-2.5177 0.3364-1.5912 1.5764-3.2756 2.8415-4.153l1.4175 2.8929c-2.3391 2.3545-1.7116 5.1939 0 6.5087z"/>
  <path id="path3599" style="fill:#606060" d="m2.8334 6.8094a1.5 1.5 0 0 1 1.3613 -2.6734 1.5 1.5 0 1 1 -1.3613 2.6734z"/>
 </g>
</svg>
